Simply-Red-Circles/scalable/places/folder-virtualbox.svg

<svg xmlns="http://www.w3.org/2000/svg" width="48" height="48" viewBox="0 0 12.7 12.7"><path fill="#a02c2c" d="M6.344.073a6.29 6.29 0 0 0-6.289 6.29 6.29 6.29 0 0 0 6.29 6.288 6.29 6.29 0 0 0 6.288-6.289A6.29 6.29 0 0 0 6.344.072zm-.018.936a5.407 5.407 0 0 1 5.407 5.407 5.407 5.407 0 0 1-5.407 5.407A5.407 5.407 0 0 1 .92 6.416 5.407 5.407 0 0 1 6.326 1.01zm-.293 1.53L4.445 7.938l-.953-3.175H1.588v.635h1.27l1.587 4.763 1.588-5.398.952 3.175 1.27-3.175.953 3.175h1.904v-.635h-1.27L8.255 2.858l-1.27 3.175-.952-3.493z"/></svg>

<?xml version="1.0" encoding="UTF-8" standalone="no"?>
<svg
   xmlns:dc="http://purl.org/dc/elements/1.1/"
   xmlns:cc="http://creativecommons.org/ns#"
   xmlns:rdf="http://www.w3.org/1999/02/22-rdf-syntax-ns#"
   xmlns:svg="http://www.w3.org/2000/svg"
   xmlns="http://www.w3.org/2000/svg"
   xmlns:sodipodi="http://sodipodi.sourceforge.net/DTD/sodipodi-0.dtd"
   xmlns:inkscape="http://www.inkscape.org/namespaces/inkscape"
   width="48"
   height="48"
   viewBox="0 0 12.7 12.7"
   version="1.1"
   id="svg4"
   sodipodi:docname="folder-virtualbox.svg"
   inkscape:version="0.92.4 (5da689c313, 2019-01-14)">
  <metadata
     id="metadata10">
    <rdf:RDF>
      <cc:Work
         rdf:about="">
        <dc:format>image/svg+xml</dc:format>
        <dc:type
           rdf:resource="http://purl.org/dc/dcmitype/StillImage" />
        <dc:title></dc:title>
      </cc:Work>
    </rdf:RDF>
  </metadata>
  <defs
     id="defs8" />
  <sodipodi:namedview
     pagecolor="#ffffff"
     bordercolor="#666666"
     borderopacity="1"
     objecttolerance="10"
     gridtolerance="10"
     guidetolerance="10"
     inkscape:pageopacity="0"
     inkscape:pageshadow="2"
     inkscape:window-width="1085"
     inkscape:window-height="480"
     id="namedview6"
     showgrid="false"
     inkscape:zoom="4.9166667"
     inkscape:cx="2.1355932"
     inkscape:cy="24"
     inkscape:window-x="0"
     inkscape:window-y="25"
     inkscape:window-maximized="0"
     inkscape:current-layer="svg4" />
  <path
     d="m 6.344,0.073 a 6.29,6.29 0 0 0 -6.289,6.29 6.29,6.29 0 0 0 6.29,6.288 6.29,6.29 0 0 0 6.288,-6.289 6.29,6.29 0 0 0 -6.289,-6.29 z M 6.326,1.009 A 5.407,5.407 0 0 1 11.733,6.416 5.407,5.407 0 0 1 6.326,11.823 5.407,5.407 0 0 1 0.92000003,6.416 5.407,5.407 0 0 1 6.326,1.01 Z M 6.033,2.539 4.445,7.938 3.492,4.763 H 1.588 v 0.635 h 1.27 l 1.587,4.763 1.588,-5.398 0.952,3.175 1.27,-3.175 0.953,3.175 h 1.904 V 7.303 H 9.8420003 L 8.255,2.858 6.985,6.033 6.033,2.54 Z"
     id="path2"
     inkscape:connector-curvature="0"
     style="fill:#a02c2c" />
</svg>
